X: 30
T: Palm Leaf Rag
C: Scott Joplin
%%abc-version 2.0
%%abcx-abcm2ps-target-version 5.9.1 (29 Sep 2008)
%%abc-creator hum2abc beta
%%abcx-conversion-date 2021/07/20 09:00:57
%%abc-copyright Copyright 2004 by Craig Stuart Sapp
%%abc-edited-by Craig Stuart Sapp
%%abc-edited-by Craig Stuart Sapp
%%abcx-initial-encoding-date 2004/06/09
%%humdrum-veritas 2662490091
%%humdrum-veritas-data 1022730556
%%removed 0's from note length
%%linebreak <none>
%%barnumbers 0
L: 1/8
M: 2/4
N: Derived from palmleaf.krn
Q: "Play a little slow" 1/4=88
%%staves {1 2}
V: 1 clef=treble
V: 2 clef=bass
K: Bb
[V:1] [K:clef=treble][M:2/4]B/A/G/B/- B/A/G | 
[V:2] [K:clef=bass][M:2/4]B,/A,/G,/B,/- B,/A,/G, | 
[V:1] F/G/A/F/-F2 | 
[V:2] F,/G,/A,/F,/-F,2 | 
[V:1] CD/E/ F/GA/ | 
[V:2] C,F,/G,/ F,/E,C,/ | 
[V:1] B zz2 ]|:  
[V:2] B,,[DB,F,] F,,[DB,F,] ]|:  
[V:1] FG/A/- A/G/F | 
[V:2] [CC,][EA,F,] F,,[EA,F,] | 
[V:1] [f2A2F2]-[f/A/F/]e/c/^c/ | 
[V:2] C,[EA,F,] F,,[EA,F,] | 
[V:1] d/d'/b/f/ g/f/B/d/- | 
[V:2] B,,[DB,F,] F,,[DB,F,] | 
[V:1] d/b/a/g/ g/fd/ | 
[V:2] B,,[DB,F,] [DD,][=B,=B,,] | 
[V:1] ef/e/- e/d/c & A>A- AA | 
[V:2] [CC,][EA,F,] [F,F,,][^F,^F,,] | 
[V:1] B2-B/d/g/b/ | 
[V:2] [G,G,,][DB,G,] G,,[DB,] | 
[V:1] a/f/d/A/- A/g/f/=e/ | 
[V:2] A,,[FDA,] A,,[G^CA,] | 
[V:1] d2-d z | 
[V:2] [FD]{/^G,,}!accent!A,, !accent!D,, z | 
[V:1] FG/A/- A/G/F | 
[V:2] C,[EA,F,] F,,[EA,F,] | 
[V:1] [f2A2F2]-[f/A/F/]e/c/^c/ | 
[V:2] C,[EA,F,] F,,[EA,F,] | 
[V:1] d/d'/b/f/ _a/g/f/e/- & x2=B3/c/- | 
[V:2] B,,[DB,F,] G,,[D=B,G,] | 
[V:1] [e/c/]^f/g/a/ c'/b/g/e/ | 
[V:2] C,[ECG,] [E,E,,][ECG,] | 
[V:1] g/B/c/e/- e/f/[gB] | 
[V:2] [E,E,,][EB,G,] [G,G,,][E,E,,] | 
[V:1] [b2-f2B2-][b/B/]b/a/g/ | 
[V:2] [D,D,,][DB,F,] [=E,=E,,][^CB,G,] | 
[V:1] f/dc/ [B=E][cA_E] |[1 
[V:2] [F,F,,][DB,F,] [G,G,,][F,F,,] | 
[V:1] [BD] d/^c/ d/B/G/_G/ :|][2 
[V:2] [B,B,,] z z [=B,=B,,] :|]  
[V:1] [BD] df[d'f] ]|: 
[V:2] [B,B,,] FDB, ]|:  
[V:1] [c'/^f/][bg][g/e/G/]- [g/e/G/][a/=f/A/][bgB] | 
[V:2] E,[EB,G,] B,,[EB,G,] | 
[V:1] [e2E2]-[eE][bgB] | 
[V:2] G,/F,/G,/A,/ B,/G,/E, | 
[V:1] [g/^c/][fd][d/B/D/]- [d/B/D/][e/=c/E/][fdF] | 
[V:2] B,,[DB,F,] F,,[DB,F,] | 
[V:1] [B2B,2]-[BB,]d | 
[V:2] D,/^C,/D,/E,/ F,/D,/F, | 
[V:1] e/f/A/c/ e/fa/ | 
[V:2] C,[EA,F,] F,,[EA,F,] | 
[V:1] [ge]a/[g/e/]- [g/e/]a/c'/e/ | 
[V:2] A,,[ECF,] F,,[EA,F,] | 
[V:1] d/f/B/c/ d/fb/ | 
[V:2] B,,[DB,F,] F,,[DB,F,] | 
[V:1] [g/d/]b[g/d/]- [g/d/]b/[d'f] | 
[V:2] B,,[DB,F,] [DD,][B,B,,] | 
[V:1] [c'/^f/][bg][g/e/G/]- [g/e/G/][a/=f/A/][bgB] | 
[V:2] E,[EB,G,] B,,[EB,G,] | 
[V:1] [e2E2]-[eE][bgB] | 
[V:2] G,/^F,/G,/A,/ B,/G,/E, | 
[V:1] [g/^c/][fd][d/B/D/]- [d/B/D/][e/=c/E/][fdF] | 
[V:2] B,,[DB,F,] F,,[DB,F,] | 
[V:1] [B2B,2]-[BB,][_AD] | 
[V:2] D,/^C,/D,/E,/ F,/D,/B,, | 
[V:1] [GE]>[BG] [e/B/]G/B/c/ | 
[V:2] [E,E,,][EB,G,] [G,G,,][_G,_G,,] | 
[V:1] [dB]F =E/G/B/^c/ | 
[V:2] [F,F,,][DB,] ^C/B,/G,/=E,/ | 
[V:1] df/F/- F/d/c |[1 
[V:2] F,[DB,] F,[EA,] | 
[V:1] B df[d'f] :|][2 
[V:2] [DB,] FDB, :|]  
[V:1] B2-B | 
[V:2] D2-D & B,F,B,, | 
[V:1]  [K:Eb] G/_A/ [I:setbarnb 39]]|: 
[V:2]  [K:Eb] z ]|:  
[V:1] B/g/f/e/ B/=B/c/^c/ | 
[V:2] [E,E,,][GEB,] [G,G,,][_G,_G,,] | 
[V:1] d/[c'a]d< [c'a]B/- | 
[V:2] [F,F,,][ADB,] B,,[ADB,] | 
[V:1] B/g/f/e/ B/=B/c/^c/ | 
[V:2] [E,E,,][GEB,] [G,G,,][_G,_G,,] | 
[V:1] d/[c'a]d< [c'a]b/- | 
[V:2] [F,F,,][ADB,] B,,[ADB,] | 
[V:1] b/f/g/a/- a/g/f/^f/ | 
[V:2] [D,D,,][ADB,] B,,[ADB,] | 
[V:1] g/^f/g/[e'/g/]- [e'/g/]d'/[e'/g/]c'/ | 
[V:2] [E,E,,][GEB,] C,[EC] | 
[V:1] [d'/f/]b/f/[g/e/]- [g/e/][g/e/][=a_e] | 
[V:2] F,[DB,] C,F, | 
[V:1] b/c'/b/_a/ f/d/c/_c/ & d2z2 | 
[V:2] z2[A2D2B,2] & B,,4 | 
[V:1] B/g/f/e/ B/=B/c/^c/ | 
[V:2] [E,E,,][GEB,] [G,G,,][_G,_G,,] | 
[V:1] d/[c'a]d< [c'a]B/- | 
[V:2] [F,F,,][ADB,] B,,[ADB,] | 
[V:1] B/g/f/e/ B/=B/c/^c/ | 
[V:2] [E,E,,][GEB,] [G,G,,][_G,_G,,] | 
[V:1] d/[c'a]d< [c'a]g/- | 
[V:2] [F,F,,][ADB,] B,,[ADB,] | 
[V:1] g/e'/b/g/ e/g/f/e/ | 
[V:2] [E,E,,][GEB,] G,,[E_DB,] | 
[V:1] c/=B/c/e/- e/c/=A/^F/ | 
[V:2] A,,[ECA,] =A,,[EC^F,] | 
[V:1] G/_A/B G/FB/ |[1 
[V:2] B,,[EB,G,] B,,[DB,A,] | 
[V:1] E{/c}B {/c} BG/A/ :|][2 
[V:2] [B,G,E,] zz2 :|]  
[V:1] E2[eBGE] z || 
[V:2] [B,G,E,][B,B,,] [E,E,,] z ||  
[V:1] E/B/G/_G/ F[dB] & x2F2 | 
[V:2] E,=E,F,2 & xx F,B,, | 
[V:1] E/B/G/_G/F2 | 
[V:2] E,=E,F,2 | 
[V:1] =A/c/e/g/- g/f/e/A/ | 
[V:2] C,[E=A,F,] F,,[EA,F,] | 
[V:1] B zz2 ]|:  
[V:2] B,,[DB,F,] F,,[DB,F,] ]|:  
[V:1]  [K:Bb] FG/A/- A/G/F | 
[V:2]  [K:Bb] [CC,][EA,F,] F,,[EA,F,] | 
[V:1] [f2A2F2]-[f/A/F/]e/c/^c/ | 
[V:2] C,[EA,F,] F,,[EA,F,] | 
[V:1] d/d'/b/f/ g/f/B/d/- | 
[V:2] B,,[DB,F,] F,,[DB,F,] | 
[V:1] d/b/a/g/ g/fd/ | 
[V:2] B,,[DB,F,] [DD,][=B,=B,,] | 
[V:1] ef/e/- e/d/c & A>A- AA | 
[V:2] [CC,][EA,F,] [F,F,,][^F,^F,,] | 
[V:1] B2-B/d/g/b/ | 
[V:2] [G,G,,][DB,G,] G,,[DB,] | 
[V:1] a/f/d/A/- A/g/f/=e/ | 
[V:2] A,,[FDA,] A,,[G^CA,] | 
[V:1] d2-d z | 
[V:2] [FD]{/^G,,}!accent!A,, !accent!D,, z | 
[V:1] FG/A/- A/G/F | 
[V:2] C,[EA,F,] F,,[EA,F,] | 
[V:1] [f2A2F2]-[f/A/F/]e/c/^c/ | 
[V:2] C,[EA,F,] F,,[EA,F,] | 
[V:1] d/d'/b/f/ _a/g/f/e/- & x2=B3/c/- | 
[V:2] B,,[DB,F,] G,,[D=B,G,] | 
[V:1] [e/c/]^f/g/a/ c'/b/g/e/ | 
[V:2] C,[ECG,] [E,E,,][ECG,] | 
[V:1] g/B/c/e/- e/f/[gB] | 
[V:2] [E,E,,][EB,G,] [G,G,,][E,E,,] | 
[V:1] [b2-f2B2-][b/B/]b/a/g/ | 
[V:2] [D,D,,][DB,F,] [=E,=E,,][^CB,G,] | 
[V:1] f/dc/ [B=E][cA_E] |[1 
[V:2] [F,F,,][DB,F,] [G,G,,][F,F,,] | 
[V:1] [BD] d/^c/ d/B/G/_G/ :|][2 
[V:2] [B,B,,] z z [=B,=B,,] :|]  
[V:1] [B2D2][bfdB] z |]  
[V:2] [B,B,,][F,F,,] [B,,B,,,] z |]  


